korla/apps/scalable/bitwig-studio.svg

<!DOCTYPE svg  PUBLIC '-//W3C//DTD SVG 1.1//EN'  'http://www.w3.org/Graphics/SVG/1.1/DTD/svg11.dtd'>
<svg style="clip-rule:evenodd;fill-rule:evenodd;stroke-linejoin:round;stroke-miterlimit:1.41421" version="1.1" viewBox="0 0 64 64" xmlns="http://www.w3.org/2000/svg">
 <g transform="matrix(0,-1,-1,0,0,0)">
  <path d="m-4.002-32.001c0-15.453-12.546-27.999-27.999-27.999s-27.999 12.546-27.999 27.999 12.546 27.999 27.999 27.999 27.999-12.546 27.999-27.999z" style="fill:url(#_Linear1)"/>
 </g>
 <path d="M32,4.002C16.488,4.002 4,16.488 4,32C4,32.113 4.011,32.224 4.018,32.336C4.369,17.135 16.711,5 32,5C47.289,5 59.631,17.135 59.982,32.336C59.989,32.224 60,32.113 60,32C60,16.488 47.512,4.002 32,4.002Z" style="fill-opacity:.1;fill-rule:nonzero;fill:white"/>
 <g transform="matrix(1.99994,0,0,1.99994,56.9986,-3.99865)">
  <g opacity=".2">
   <circle cx="-18.5" cy="14.5" r="1.5"/>
   <circle cx="-14.5" cy="14.5" r="1.5"/>
   <circle cx="-10.5" cy="14.5" r="1.5"/>
   <circle cx="-6.5" cy="14.5" r="1.5"/>
   <circle cx="-22.5" cy="18.5" r="1.5"/>
   <circle cx="-18.5" cy="18.5" r="1.5"/>
   <circle cx="-14.5" cy="18.5" r="1.5"/>
   <circle cx="-10.5" cy="18.5" r="1.5"/>
   <circle cx="-6.5" cy="18.5" r="1.5"/>
   <circle cx="-2.5" cy="18.5" r="1.5"/>
   <circle cx="-22.5" cy="22.5" r="1.5"/>
   <circle cx="-18.5" cy="22.5" r="1.5"/>
   <circle cx="-6.5" cy="22.5" r="1.5"/>
   <circle cx="-2.5" cy="22.5" r="1.5"/>
  </g>
 </g>
 <path d="m20.001 21.002c-1.646 0-3 1.354-3 3 1e-3 1.645 1.355 2.998 3 2.998s2.999-1.353 3-2.998c0-1.646-1.354-3-3-3zm8 0c-1.646 0-3 1.354-3 3 1e-3 1.645 1.355 2.998 3 2.998s2.999-1.353 3-2.998c0-1.646-1.354-3-3-3zm8 0c-1.646 0-3 1.354-3 3 1e-3 1.645 1.355 2.998 3 2.998s2.999-1.353 3-2.998c0-1.646-1.354-3-3-3zm7.998 0c-1.646 0-3 1.354-3 3 1e-3 1.645 1.355 2.998 3 2.998s2.999-1.353 3-2.998c0-1.646-1.354-3-3-3zm-31.998 7.998c-1.646 0-3 1.354-3 3s1.354 3 3 3 3-1.354 3-3-1.354-3-3-3zm8 0c-1.646 0-3 1.354-3 3s1.354 3 3 3 3-1.354 3-3-1.354-3-3-3zm8 0c-1.646 0-3 1.354-3 3s1.354 3 3 3 3-1.354 3-3-1.354-3-3-3zm8 0c-1.646 0-3 1.354-3 3s1.354 3 3 3 3-1.354 3-3-1.354-3-3-3zm7.998 0c-1.646 0-3 1.354-3 3s1.354 3 3 3 3-1.354 3-3-1.354-3-3-3zm8 0c-1.646 0-3 1.354-3 3s1.354 3 3 3 3-1.354 3-3-1.354-3-3-3zm-39.998 8c-1.646 0-3 1.354-3 3s1.354 3 3 3 3-1.354 3-3-1.354-3-3-3zm8 0c-1.646 0-3 1.354-3 3s1.354 3 3 3 3-1.354 3-3-1.354-3-3-3zm23.998 0c-1.646 0-3 1.354-3 3s1.354 3 3 3 3-1.354 3-3-1.354-3-3-3zm8 0c-1.646 0-3 1.354-3 3s1.354 3 3 3 3-1.354 3-3-1.354-3-3-3z" style="fill-rule:nonzero;fill:white"/>
 <defs>
  <linearGradient id="_Linear1" x2="1" gradientTransform="matrix(-56.9831,-12.4145,-12.4145,56.9831,-5.70602,-26.6024)" gradientUnits="userSpaceOnUse">
   <stop style="stop-color:rgb(224,32,54)" offset="0"/>
   <stop style="stop-color:rgb(139,17,32)" offset="1"/>
  </linearGradient>
 </defs>
</svg>

<?xml version="1.0" encoding="UTF-8" standalone="no"?>
<!DOCTYPE svg PUBLIC "-//W3C//DTD SVG 1.1//EN" "http://www.w3.org/Graphics/SVG/1.1/DTD/svg11.dtd">
<svg width="100%" height="100%" viewBox="0 0 64 64" version="1.1" xmlns="http://www.w3.org/2000/svg" xmlns:xlink="http://www.w3.org/1999/xlink" xml:space="preserve" xmlns:serif="http://www.serif.com/" style="fill-rule:evenodd;clip-rule:evenodd;stroke-linejoin:round;stroke-miterlimit:1.41421;">
    <g transform="matrix(0,-1,-1,0,0,0)">
        <path d="M-4.002,-32.001C-4.002,-47.454 -16.548,-60 -32.001,-60C-47.454,-60 -60,-47.454 -60,-32.001C-60,-16.548 -47.454,-4.002 -32.001,-4.002C-16.548,-4.002 -4.002,-16.548 -4.002,-32.001Z" style="fill:url(#_Linear1);"/>
    </g>
    <path d="M32,4.002C16.488,4.002 4,16.488 4,32C4,32.113 4.011,32.224 4.018,32.336C4.369,17.135 16.711,5 32,5C47.289,5 59.631,17.135 59.982,32.336C59.989,32.224 60,32.113 60,32C60,16.488 47.512,4.002 32,4.002Z" style="fill:white;fill-opacity:0.1;fill-rule:nonzero;"/>
    <g transform="matrix(1.99994,0,0,1.99994,56.9986,-3.99865)">
        <g opacity="0.2">
            <circle cx="-18.5" cy="14.5" r="1.5"/>
            <circle cx="-14.5" cy="14.5" r="1.5"/>
            <circle cx="-10.5" cy="14.5" r="1.5"/>
            <circle cx="-6.5" cy="14.5" r="1.5"/>
            <circle cx="-22.5" cy="18.5" r="1.5"/>
            <circle cx="-18.5" cy="18.5" r="1.5"/>
            <circle cx="-14.5" cy="18.5" r="1.5"/>
            <circle cx="-10.5" cy="18.5" r="1.5"/>
            <circle cx="-6.5" cy="18.5" r="1.5"/>
            <circle cx="-2.5" cy="18.5" r="1.5"/>
            <circle cx="-22.5" cy="22.5" r="1.5"/>
            <circle cx="-18.5" cy="22.5" r="1.5"/>
            <circle cx="-6.5" cy="22.5" r="1.5"/>
            <circle cx="-2.5" cy="22.5" r="1.5"/>
        </g>
    </g>
    <path d="M20.001,21.002C20.001,21.002 20.001,21.002 20.001,21.002C18.355,21.002 17.001,22.356 17.001,24.002C17.001,24.002 17.001,24.002 17.001,24.002C17.002,25.647 18.356,27 20.001,27C21.646,27 23,25.647 23.001,24.002C23.001,24.002 23.001,24.002 23.001,24.002C23.001,22.356 21.647,21.002 20.001,21.002C20.001,21.002 20.001,21.002 20.001,21.002ZM28.001,21.002C28.001,21.002 28.001,21.002 28.001,21.002C26.355,21.002 25.001,22.356 25.001,24.002C25.001,24.002 25.001,24.002 25.001,24.002C25.002,25.647 26.356,27 28.001,27C29.646,27 31,25.647 31.001,24.002C31.001,24.002 31.001,24.002 31.001,24.002C31.001,22.356 29.647,21.002 28.001,21.002C28.001,21.002 28.001,21.002 28.001,21.002ZM36.001,21.002C36.001,21.002 36.001,21.002 36.001,21.002C34.355,21.002 33.001,22.356 33.001,24.002C33.001,24.002 33.001,24.002 33.001,24.002C33.002,25.647 34.356,27 36.001,27C37.646,27 39,25.647 39.001,24.002C39.001,24.002 39.001,24.002 39.001,24.002C39.001,22.356 37.647,21.002 36.001,21.002C36.001,21.002 36.001,21.002 36.001,21.002ZM43.999,21.002C43.999,21.002 43.999,21.002 43.999,21.002C42.353,21.002 40.999,22.356 40.999,24.002C40.999,24.002 40.999,24.002 40.999,24.002C41,25.647 42.354,27 43.999,27C45.644,27 46.998,25.647 46.999,24.002C46.999,24.002 46.999,24.002 46.999,24.002C46.999,22.356 45.645,21.002 43.999,21.002C43.999,21.002 43.999,21.002 43.999,21.002ZM12.001,29C12.001,29 12.001,29 12.001,29C10.355,29 9.001,30.354 9.001,32L9.001,32C9.001,33.646 10.355,35 12.001,35L12.001,35C13.647,35 15.001,33.646 15.001,32L15.001,32C15.001,30.354 13.647,29 12.001,29C12.001,29 12.001,29 12.001,29ZM20.001,29C20.001,29 20.001,29 20.001,29C18.355,29 17.001,30.354 17.001,32L17.001,32C17.001,33.646 18.355,35 20.001,35L20.001,35C21.647,35 23.001,33.646 23.001,32L23.001,32C23.001,30.354 21.647,29 20.001,29C20.001,29 20.001,29 20.001,29ZM28.001,29C28.001,29 28.001,29 28.001,29C26.355,29 25.001,30.354 25.001,32L25.001,32C25.001,33.646 26.355,35 28.001,35L28.001,35C29.647,35 31.001,33.646 31.001,32L31.001,32C31.001,30.354 29.647,29 28.001,29C28.001,29 28.001,29 28.001,29ZM36.001,29C36.001,29 36.001,29 36.001,29C34.355,29 33.001,30.354 33.001,32L33.001,32C33.001,33.646 34.355,35 36.001,35L36.001,35C37.647,35 39.001,33.646 39.001,32L39.001,32C39.001,30.354 37.647,29 36.001,29C36.001,29 36.001,29 36.001,29ZM43.999,29C43.999,29 43.999,29 43.999,29C42.353,29 40.999,30.354 40.999,32L40.999,32C40.999,33.646 42.353,35 43.999,35L43.999,35C45.645,35 46.999,33.646 46.999,32L46.999,32C46.999,30.354 45.645,29 43.999,29C43.999,29 43.999,29 43.999,29ZM51.999,29C51.999,29 51.999,29 51.999,29C50.353,29 48.999,30.354 48.999,32L48.999,32C48.999,33.646 50.353,35 51.999,35L51.999,35C53.645,35 54.999,33.646 54.999,32L54.999,32C54.999,30.354 53.645,29 51.999,29C51.999,29 51.999,29 51.999,29ZM12.001,37C12.001,37 12.001,37 12.001,37C10.355,37 9.001,38.354 9.001,40L9.001,40C9.001,41.646 10.355,43 12.001,43L12.001,43C13.647,43 15.001,41.646 15.001,40L15.001,40C15.001,38.354 13.647,37 12.001,37C12.001,37 12.001,37 12.001,37ZM20.001,37C20.001,37 20.001,37 20.001,37C18.355,37 17.001,38.354 17.001,40L17.001,40C17.001,41.646 18.355,43 20.001,43L20.001,43C21.647,43 23.001,41.646 23.001,40L23.001,40C23.001,38.354 21.647,37 20.001,37C20.001,37 20.001,37 20.001,37ZM43.999,37C43.999,37 43.999,37 43.999,37C42.353,37 40.999,38.354 40.999,40L40.999,40C40.999,41.646 42.353,43 43.999,43L43.999,43C45.645,43 46.999,41.646 46.999,40L46.999,40C46.999,38.354 45.645,37 43.999,37C43.999,37 43.999,37 43.999,37ZM51.999,37C51.999,37 51.999,37 51.999,37C50.353,37 48.999,38.354 48.999,40L48.999,40C48.999,41.646 50.353,43 51.999,43L51.999,43C53.645,43 54.999,41.646 54.999,40L54.999,40C54.999,38.354 53.645,37 51.999,37C51.999,37 51.999,37 51.999,37Z" style="fill:white;fill-rule:nonzero;"/>
    <defs>
        <linearGradient id="_Linear1" x1="0" y1="0" x2="1" y2="0" gradientUnits="userSpaceOnUse" gradientTransform="matrix(-56.9831,-12.4145,-12.4145,56.9831,-5.70602,-26.6024)"><stop offset="0" style="stop-color:rgb(224,32,54);stop-opacity:1"/><stop offset="1" style="stop-color:rgb(139,17,32);stop-opacity:1"/></linearGradient>
    </defs>
</svg>
